X: 7984
T: Conlagh's Big Day
R: reel
M: 4/4
K: Bminor
"tacet"zEFA|:Bd"Bm"(ef) "G"dBBA|"Bm"~F2FE ED(EF)|"Gsus2"D2AD cDGD|"A5"ed(ef) dBBA|
"Bm"(AB)(ef) dBBA|"Gmj7"~F2FE ED(EF)|"A5"AGG(F G)BA(F|1 "D"G)FD2 "tacet"zEFA:|2 "D"G)FD2 "tacet"zAde||
"D"fe e/e/e de"A5"c2-|cABd ed(e"iv"""f)|"F#m(7/C#)"aA A/A/A A"ii"""B"G"B2-|BdcA (AB)de|
"D"~f3e de"A5"c2-|cABd edcd|"Em(7/B)"~G3B (de)"A5"BA|BA A/A/A (B/c/)d eg|
"D"~f3e de"A5"c2-|cABd ed(e"iv"""f)|"F#m(7/C#)"aA A/A/A A"ii"""B"G"B2-|BdcA (AB)de|
"D"~f3e de"A5"c2-|cABd edcd|"Em(7/B)"~G3B (de)"A5"BA|(B/c/)d e"tacet"z EFA||
"CODA" Bd(ef) dBBA|"Bm"~F2FE "A5"ED(EF)|"D"D8||

